packages/astro-components-stencil/src/icons/card-membership.svg

<svg xmlns="http://www.w3.org/2000/svg" viewBox="0 0 24 24"><g xmlns="http://www.w3.org/2000/svg" id="card-membership" fill-rule="nonzero">
            <path d="M20 2H4c-1.11 0-2 .89-2 2v11c0 1.11.89 2 2 2h4v5l4-2 4 2v-5h4c1.11 0 2-.89 2-2V4c0-1.11-.89-2-2-2zm0 13H4v-2h16v2zm0-5H4V5c0-.55.45-1 1-1h14c.55 0 1 .45 1 1v5z"/>
        </g></svg>

<svg width="24" height="24" viewBox="0 0 24 24" fill="none" xmlns="http://www.w3.org/2000/svg">
<path fill-rule="evenodd" clip-rule="evenodd" d="M20 2H4C2.89 2 2 2.89 2 4V15C2 16.11 2.89 17 4 17H8V22L12 20L16 22V17H20C21.11 17 22 16.11 22 15V4C22 2.89 21.11 2 20 2ZM20 15H4V13H20V15ZM4 10H20V5C20 4.45 19.55 4 19 4H5C4.45 4 4 4.45 4 5V10Z" fill="black"/>
</svg>
